icons/bag-chevron-up.svg

<svg xmlns="http://www.w3.org/2000/svg" width="24" height="24" viewBox="0 0 24 24">
  <path d="M14,2 C15.5976809,2 16.9036609,3.24891996 16.9949073,4.82372721 L17,5 L17,6 L20,6 C21.1045695,6 22,6.8954305 22,8 L22,20 C22,21.1045695 21.1045695,22 20,22 L4,22 C2.8954305,22 2,21.1045695 2,20 L2,8 C2,6.8954305 2.8954305,6 4,6 L7,6 L7,5 C7,3.40231912 8.24891996,2.09633912 9.82372721,2.00509269 L10,2 L14,2 Z M12.6128994,11.7097046 C12.2206082,11.4046797 11.6533772,11.4324093 11.2928932,11.7928932 L11.2928932,11.7928932 L8.29289322,14.7928932 L8.20970461,14.8871006 C7.90467972,15.2793918 7.93240926,15.8466228 8.29289322,16.2071068 L8.29289322,16.2071068 L8.38710056,16.2902954 C8.77939176,16.5953203 9.34662282,16.5675907 9.70710678,16.2071068 L9.70710678,16.2071068 L12,13.915 L14.2928932,16.2071068 L14.3871006,16.2902954 C14.7793918,16.5953203 15.3466228,16.5675907 15.7071068,16.2071068 C16.0976311,15.8165825 16.0976311,15.1834175 15.7071068,14.7928932 L15.7071068,14.7928932 L12.7071068,11.7928932 Z M14,4 L10,4 C9.48716416,4 9.06449284,4.38604019 9.00672773,4.88337887 L9,5 L9,6 L15,6 L15,5 C15,4.48716416 14.6139598,4.06449284 14.1166211,4.00672773 L14,4 Z"/>
</svg>

<svg xmlns="http://www.w3.org/2000/svg" viewBox="0 0 24 24">
  <path d="M14 2a3 3 0 0 1 3 2.82V6h3a2 2 0 0 1 2 2v12a2 2 0 0 1-2 2H4a2 2 0 0 1-2-2V8c0-1.1.9-2 2-2h3V5a3 3 0 0 1 2.82-3H14zm-1.39 9.71a1 1 0 0 0-1.32.08l-3 3-.08.1a1 1 0 0 0 .08 1.32l.1.08a1 1 0 0 0 1.32-.08L12 13.9l2.3 2.3.09.08a1 1 0 0 0 1.32-1.5l-3-3zM14 4h-4a1 1 0 0 0-1 .88V6h6V5a1 1 0 0 0-.88-1H14z"/>
</svg>
